X: 40
T: Over the Water #1   [F]
O: Rutherford 1756
R: jig
Z: 2019 John Chambers <jc:trillian.mit.edu>
B: Rutherford's compleat Collection 1756 v.1 p.25? #40 [2019-4-19]
M: 6/8
L: 1/8
K: F
|:\
"F"c2c c2d | "C7"ABG "F"FAB | "F"cdc cAc | "Bb"d3 "F"f3 |\
"F"c2c c2d | "Gm"B2A "C7"G2F | "Bb"fed "F"cAc | "Bb"d3 "F"f3 :|
|:\
"F"f2g "Dm"a2b | "Gm"gaf "C7"gec | "F"f2g "Dm"aba | "Gm"g3 "C7"c3 |\
"F"f2g "Dm"aba | "G(m)"gaf "C7"gec | "Bb"(d/e/f)d "F"cAc | "Bb"d3 "F"f3 :|
%%begintext align
%% Cast off & Hands round four with the Bottom Cou. .|
%% Cast up & Hands round for with ye 2d Cou. :|
%% Gallop down the Middle & up again and cast off .|
%% Hands round all Six :|:
%%endtext

%%sep 2 1 500

